X: 1
T: Canyon Quadrille
%O: from Viola Ruth
B: Lee Owens "Advanced Square Dance Figures of the West and Southwest" p.34
R: reel
Z: 2010 John Chambers <jc:trillian.mit.edu>
M: 2/4
L: 1/16
K: C
(cd) |\
"C"e3^d e3=d | c3B (cB)c2 | "F"d3e f3d | A6 ((3ABc) |\
"G"d3d d3c | "G7"B6 {cB}A2 | "G"G2G2 "G7"A2G2 | "C"E6 (cd) |
e3^d e3=d | c3B (cB)c2 | "F"d3e f2d2 | A6 ((3ABc) |\
"G"d3d d3c | "G7"B6 {cB}A2 | "G"G2G2 "G7"A2B2 | "C"c6 (EF) ||
G2G2 A2G2 | E6 (EF) | G2G2 A2G2 |"G7"F6 (Bc) |\
"G"d3d d2c2 | "G7"B6 {cB}A2 | "G"G2G2 "G7"A2G2 | "C"E6 (EF) |
G3G A2G2 | E6 ({F}ED) | C2C2 D2E2 | "F"F6 (Bc) |\
"G"d3d d2c2 | "G7"B6 ({c}BA) | "G"G2G2 "G7"A2B2 | "C"c6 |]

%%sep 1 1 500

